icons/blur-off-line.svg

<svg viewBox="0 0 24 24" fill="currentColor" xmlns="http://www.w3.org/2000/svg"><path d="M18.1537 19.5646C14.6255 22.8742 9.08161 22.8062 5.6362 19.3608C2.19078 15.9154 2.12284 10.3715 5.43239 6.8433L1.39355 2.80445L2.80777 1.39024L22.6068 21.1892L21.1925 22.6034L18.1537 19.5646ZM6.84756 8.25846C4.3185 11.0046 4.38612 15.2823 7.05041 17.9466C9.7147 20.6109 13.9924 20.6785 16.7385 18.1494L6.84756 8.25846ZM20.4144 16.1969L18.8156 14.598C19.3488 12.3187 18.7269 9.82407 16.9499 8.0471L12.0002 3.09735L9.65751 5.43999L8.2433 4.02578L12.0002 0.268921L18.3641 6.63288C20.9499 9.21864 21.6333 12.9863 20.4144 16.1969Z"/></svg>

<svg xmlns="http://www.w3.org/2000/svg" viewBox="0 0 24 24">
    <g>
        <path fill="none" d="M0 0h24v24H0z"/>
        <path d="M18.154 19.568A9 9 0 0 1 5.432 6.846L1.393 2.808l1.415-1.415 19.799 19.8-1.415 1.414-3.038-3.04zM6.847 8.262a7 7 0 0 0 9.891 9.89l-9.89-9.89zM20.414 16.2l-1.599-1.599a6.995 6.995 0 0 0-1.865-6.55L12 3.1 9.657 5.443 8.243 4.03 12 .272l6.364 6.364a9.002 9.002 0 0 1 2.05 9.564z"/>
    </g>
</svg>
